X:1
T:Blessèd Bible
T:Blessèd Bible
T:J. Howard Entwisle
T:Frances Jane (Fanny) Crosby, 1898
T:Public Domain Courtesy of the Cyber Hymnal™
T:Public Domain Courtesy of the Cyber Hymnal™
C:J. Howard Entwisle
Z:Public Domain
Z:Courtesy of the Cyber Hymnal™
%%score ( 1 2 ) ( 3 4 )
L:1/8
M:9/8
K:Bb
V:1 treble 
V:2 treble 
V:3 bass 
V:4 bass 
V:1
 [Fd]2 [Ge] | [Fd]3- [Fd]2 [Ec] [Fd]2 [Ec] | [D-c]3 [DF]3 ([DF][EG])[B,D] | %3
w: 1.~Bless- èd|Bi- * ble, Book of|Gold, * Pre- * cious|
w: 2.~Lamp of|faith, * my feet to|lead, * Bread * of|
w: 3.~Word of|God, * thy love im-|part, * Fire * my|
 [A,E]3- [A,E]2 [A,E] (EF)[A,C] | [B,D]3- [B,D]3 (FB)[Dc] | ([Fd]3- [Fd][=E^c])[Fd] [_Af]2 [G=e] | %6
w: truths * thy pag- * es|hold, * Truths * to|lead * * me day by|
w: heav’n, * my soul * to|feed; * Liv- * ing|wa- * * ters pure and|
w: zeal, * and cleanse * my|heart; * Keep * me|ear- * * nest, keep me|
 ([Ge]3 [Fd]3) ([Fd][Ec])[DB] | [=Ec]3 [_E_c]2 [EG] [EA]2 [EF] | B6 ||"^Refrain" [Fd]2 [_Ad] | %10
w: day * All * a-|long my pil- grim way.|||
w: free, * Book * of|books thou art to me.|Bless-|èd Bi-|
w: true, * Ev- * ’ry|day my strength re- new.|||
 [G-e]3 [Ge]2 [EG] [GB]2 [_Gc] | [Fd]3- [Fd]3 ([Fd][Ge])[Fd] | [Fc]3- [Fc]2 [Fc] [=Ed]2 [Ec] | %13
w: |||
w: ble, * pure and true,|Guide * me * all|my * jour- ney through;|
w: |||
 [Fc]3- [Fc]3 [Ff]2 [Fe] | [Fd]3- [Fd]2 [EB] (BF)[D_A] | [EG]3- [EG]3 [=Ec]2 [EB] | %16
w: |||
w: Heav’n- * ly light|with- * in me * shine,|Help * me make|
w: |||
 [FA]3- [FA]2 [Fe] [Fd]2 [Ec] | [DB]3- [DB]3 |] %18
w: ||
w: thy * pre- cepts mine!||
w: ||
V:2
 x3 | x9 | x9 | x6 A,2 x | x6 D2 x | x9 | x9 | x9 | (D2- E) D3 || x3 | x9 | x9 | x9 | x9 | %14
 x6 D2 x | x9 | x9 | x6 |] %18
V:3
 z2 z | [B,,B,]2 [D,B,] [F,A,]3 [F,A,]3 | [B,,B,]2 [B,,B,] [B,,B,]3 z2 z | [C,F,]2 [C,F,] F,3 F,3 | %4
w: |Bless- èd Bi- ble,|Book of Gold,|Pre- cious truths thy|
 [B,,F,]2 [B,,F,] [B,,F,]3 z2 z | [B,,B,]2 [B,,B,] [B,,B,]3 B,3 | B,2 B, B,3 z2 z | %7
w: pag- es hold,|Truths to lead me|day by day,|
 [C,B,]2 [C,B,] [F,A,]3 [F,A,]3 | [B,,B,]2 [B,,G,] [B,,F,]3 || z2 z | %10
w: All a- long my|pil- grim way.||
 [E,B,]2 [E,B,] [E,B,]3 [E,B,]3 | [B,,B,]2 [B,,B,] [B,,B,]3 z2 z | [C,A,]2 [C,A,] [C,A,]3 [C,B,]3 | %13
w: Bless- èd Bi- ble,|pure and true,|Guide me all my|
 [F,A,]2 [F,A,] [F,A,]3 [F,D]2 [F,C] | [B,,B,]2 [B,,B,] [B,,B,]3 [B,,B,]3 | %15
w: jour- ney through; Heav’n- ly|light with- in me|
 ([E,B,]2 [E,B,] [E,B,]3 [C,B,]2) [C,C] | [F,C]2 [F,C] [F,C]2 [F,C] [F,B,]2 F, | %17
w: shine, * * * help|me make thy pre- cepts mine,|
 [B,,F,]2 [B,,F,] [B,,F,]3 |] %18
w: pre- cepts mine!|
V:4
 x3 | x9 | x9 | x3 F,3 F,3 | x9 | x6 (D,2 E,) | B,2 B, B,3 x3 | x9 | x6 || x3 | x9 | x9 | x9 | x9 | %14
 x9 | x9 | x8 F, | x6 |] %18

